Numix-GalliumOS/16/mimetypes/application-vnd.oasis.opendocument.formula-template.svg

<?xml version="1.0" encoding="UTF-8" standalone="no"?>
<svg
   xmlns:dc="http://purl.org/dc/elements/1.1/"
   xmlns:cc="http://creativecommons.org/ns#"
   xmlns:rdf="http://www.w3.org/1999/02/22-rdf-syntax-ns#"
   xmlns:svg="http://www.w3.org/2000/svg"
   xmlns="http://www.w3.org/2000/svg"
   xmlns:sodipodi="http://sodipodi.sourceforge.net/DTD/sodipodi-0.dtd"
   xmlns:inkscape="http://www.inkscape.org/namespaces/inkscape"
   width="16"
   height="16"
   viewBox="0 0 16 16"
   id="svg2"
   version="1.1"
   inkscape:version="0.48.5 r10040"
   sodipodi:docname="application-vnd.oasis.opendocument.formula-template.svg">
  <metadata
     id="metadata22">
    <rdf:RDF>
      <cc:Work
         rdf:about="">
        <dc:format>image/svg+xml</dc:format>
        <dc:type
           rdf:resource="http://purl.org/dc/dcmitype/StillImage" />
      </cc:Work>
    </rdf:RDF>
  </metadata>
  <defs
     id="defs20" />
  <sodipodi:namedview
     pagecolor="#ffffff"
     bordercolor="#666666"
     borderopacity="1"
     objecttolerance="10"
     gridtolerance="10"
     guidetolerance="10"
     inkscape:pageopacity="0"
     inkscape:pageshadow="2"
     inkscape:window-width="1280"
     inkscape:window-height="970"
     id="namedview18"
     showgrid="false"
     inkscape:zoom="14.75"
     inkscape:cx="8"
     inkscape:cy="8"
     inkscape:window-x="0"
     inkscape:window-y="0"
     inkscape:window-maximized="1"
     inkscape:current-layer="svg2" />
  <path
     style="fill:#785a8b;fill-opacity:1"
     d="M 2.667969,6e-7 C 2.324219,6e-7 2,-0.0097694 2,0.3339851 L 2,15.332031 C 2,15.65625 2.34375,16 2.667969,16 l 10.664062,0 C 13.65625,16 14,15.65625 14,15.332031 L 14,0.6679696 C 14,0.3242196 13.675781,6e-7 13.332031,6e-7 z"
     id="path2991"
     inkscape:connector-curvature="0"
     sodipodi:nodetypes="sssssssss" />
  <path
     style="fill:#ffffff"
     inkscape:connector-curvature="0"
     id="path14"
     d="m 5,5 0,5 -1,0 1,2 1,0 0,-6 6,0 0,-1 z M 7.9009123,6.6173408 6.9934815,7.5664926 8.5840938,9.224903 6.9934815,10.888526 7.9009123,11.837679 9.4967408,10.174054 11.087353,11.837679 12,10.888526 10.404172,9.224903 12,7.5664926 11.087353,6.6173408 9.4967408,8.2757494 z"
     sodipodi:nodetypes="cccccccccccccccccccccc" />
</svg>

<svg xmlns="http://www.w3.org/2000/svg" viewBox="0 0 16 16">
 <path d="m 2.668 0 c -0.344 0 -0.668 -0.01 -0.668 0.334 l 0 14.998 c 0 0.324 0.344 0.668 0.668 0.668 l 10.664 0 c 0.324 0 0.668 -0.344 0.668 -0.668 l 0 -14.664 c 0 -0.344 -0.324 -0.668 -0.668 -0.668 z" style="fill:#785a8b;fill-opacity:1"/>
 <path d="m 5 5 0 5 -1 0 1 2 1 0 0 -6 6 0 0 -1 z m 2.901 1.617 -0.907 0.949 1.591 1.658 -1.591 1.664 0.907 0.949 1.596 -1.664 1.591 1.664 0.913 -0.949 -1.596 -1.664 1.596 -1.658 -0.913 -0.949 -1.591 1.658 z" style="fill:#fff"/>
</svg>
